X:1
T:Goldberg Variations: Variation XI
T:BWV 988
T:J. S. Bach
%%score { 1 | 2 }
L:1/8
M:12/16
K:G
V:1 treble nm="Harp"
V:2 bass 
V:1
 B/A/G/F/E/D/ ^C3/2-CE/ | A/G/F/E/D/^C/ B,3/2-B,A/ | G/F/E/D/^C/B,/ A,C/EG/ | %3
 F/E/D/[K:bass] ^C/B,/A,/ G,/F,/E,/ D,/E,/C,/ | B,,/D,/G,/ B,/D/G/ D/B,/G,/ =F,/E,/D,/ | %5
 ^C,/E,/G,/ _B,/E/G/ E/B,/A,/ G,/F,/E,/ | D,/G,/B,/[K:treble] D/G/B/ A/F/D/ C/B,/A,/ | %7
 G,/B,/D/ G/B/d/ gd/ BF/ | G3/2-GB/ e/d/^c/ B/A/G/ | F3/2-Fe/ d/^c/B/ A/G/F/ | %10
 E3/2-EG/ ^C/B/A/ G/A/B/ | E/d/^c/ B/c/d/ c/e/f/ g/f/e/ | %12
 e/4d/4c/4d/4e/4d/4 e/4d/4e/4d/4e/4d/4 e/4d/4e/4d/4F/ Ad/ | %13
 c/4d/4e/4d/4e/4d/4 e/4d/4e/4d/4e/4d/4 e/4d/4e/4d/4^G/ Bd/ | %14
 ^c/4d/4e/4d/4e/4d/4 e/4d/4e/4d/4e/4d/4 e/4d/4e/g/ c/e/g/ | f3/2- f/d/A/ F/D/F/ A/^c/d/ | %16
 B/A/G/F/E/D/ ^C3/2-CE/ | A/G/F/E/D/^C/ B,3/2-B,A/ | G/F/E/D/^C/B,/ A,C/EG/ | %19
 F/E/D/ ^C/B,/A,/ G,/F,/E,/ D,/E,/C,/ | B,,/D,/G,/ B,/D/G/ D/B,/G,/ =F,/E,/D,/ | %21
 ^C,/E,/G,/ _B,/E/G/ E/B,/A,/ G,/F,/E,/ | D,/G,/B,/ D/G/B/ A/F/D/ C/B,/A,/ | %23
 G,/B,/D/ G/B/d/ gd/ BF/ | G3/2-GB/ e/d/^c/ B/A/G/ | F3/2-Fe/ d/^c/B/ A/G/F/ | %26
 E3/2-EG/ ^C/B/A/ G/A/B/ | E/d/^c/ B/c/d/ c/e/f/ g/f/e/ | %28
 e/4d/4c/4d/4e/4d/4 e/4d/4e/4d/4e/4d/4 e/4d/4e/4d/4F/ Ad/ | %29
 c/4d/4e/4d/4e/4d/4 e/4d/4e/4d/4e/4d/4 e/4d/4e/4d/4^G/ Bd/ | %30
 ^c/4d/4e/4d/4e/4d/4 e/4d/4e/4d/4e/4d/4 e/4d/4e/g/ c/e/g/ | f3/2- f/d/A/ F/D/F/ A/^c/d/ | %32
 z3 a/g/f/ e/d/c/ | B/A/G/ z3/2 d'/c'/b/ a/g/=f/ | e/d/c/ B/A/G/ F^d/ e^A/ | %35
 B^D/ FA/ c/B/A/ G/A/F/ | E/G/B/ e/g/b/ g/e/B/ G/F/E/ | =F/A/c/ =f/a/c'/ a/f/c/ A/G/^F/ | %38
 G/B/e/ g/e/c'/ b/a/g/ f/e/^d/ | e/g/e/ B/G/F/ G/E/G/ B/e/^d/ | e/d/c/ B/A/G/ F3/2-FA/ | %41
 d/c/B/ A/G/F/ E3/2-Ed/ | c/B/A/ G/F/E/ F/E/D/ ^C/D/E/ | %43
 F/E/D/[K:bass] C/B,/A,/ B,/A,/G,/ F,/G,/A,/ | B,/A,/G,/ =F,/E,/D,/ E,/D,/C,/ B,,/C,/D,/ | %45
 E,/C,/E,/ G,/C/E/ C/A,/C/[K:treble] E/A/c/ | F/D/F/ A/d/f/ d/A/d/ f/a/c'/ | %47
 b/g/d/ B/G/F/ G/B/d/ g3/2 | z3 a/g/f/ e/d/c/ | B/A/G/ z3/2 d'/c'/b/ a/g/=f/ | %50
 e/d/c/ B/A/G/ F^d/ e^A/ | B^D/ FA/ c/B/A/ G/A/F/ | E/G/B/ e/g/b/ g/e/B/ G/F/E/ | %53
 =F/A/c/ =f/a/c'/ a/f/c/ A/G/^F/ | G/B/e/ g/e/c'/ b/a/g/ f/e/^d/ | e/g/e/ B/G/F/ G/E/G/ B/e/^d/ | %56
 e/d/c/ B/A/G/ F3/2-FA/ | d/c/B/ A/G/F/ E3/2-Ed/ | c/B/A/ G/F/E/ F/E/D/ ^C/D/E/ | %59
 F/E/D/ C/B,/A,/ B,/A,/G,/ F,/G,/A,/ | B,/A,/G,/ =F,/E,/D,/ E,/D,/C,/ B,,/C,/D,/ | %61
 E,/C,/E,/ G,/C/E/ C/A,/C/ E/A/c/ | F/D/F/ A/d/f/ d/A/d/ f/a/c'/ | b/g/d/ B/G/F/ G/B/d/ g3/2 |] %64
V:2
 G,3/2-G,B,/ E/D/^C/B,/A,/G,/ | F,3/2-F,E/ D/^C/B,/A,/G,/F,/ | E,G,/B,D/ ^C/B,/A,/G,/F,/E,/ | %3
 D,/E,/F,/ G,/A,/B,/[K:treble] ^C/D/E/ F/G/A/ | %4
 A/4G/4A/4G/4 A/4G/4A/4G/4 A/4G/4A/4G/4 A/4G/4A/4G/4 B,/ DG/ | %5
 F/4G/4A/4G/4 A/4G/4A/4G/4 A/4G/4A/4G/4 A/4G/4A/4G/4 ^C/ EG/ | %6
 F/4G/4A/4G/4 A/4G/4A/4G/4 A/4G/4A/4G/4 A/4G/4A/c/ F/A/c/ | B3/2- B/G/D/ B,/G,/B,/ D/G/A/ | %8
 B/A/G/ F/E/D/ ^C3/2-CE/ | A/G/F/ E/D/^C/ B,3/2-B,A/ | G/F/E/ D/^C/B,/ E/D/C/[K:bass] B,/A,/G,/ | %11
 ^C/B,/A,/ G,/F,/E,/ A,/G,/F,/ E,/F,/G,/ | F,/A,/D/[K:treble] F/A/d/ A/F/D/ C/B,/A,/ | %13
 ^G,/B,/D/ =F/B/d/ B/F/E/ D/^C/B,/ | A,/D/F/ A/d/f/ e/^c/A/ G/F/E/ | %15
 D/[K:bass]A,/F,/ D,/A,,/F,,/ D,,/F,,/A,,/ D,3/2 | G,3/2-G,B,/ E/D/^C/B,/A,/G,/ | %17
 F,3/2-F,E/ D/^C/B,/A,/G,/F,/ | E,G,/B,D/ ^C/B,/A,/G,/F,/E,/ | D,/E,/F,/ G,/A,/B,/ ^C/D/E/ F/G/A/ | %20
 A/4G/4A/4G/4 A/4G/4A/4G/4 A/4G/4A/4G/4 A/4G/4A/4G/4 B,/ DG/ | %21
 F/4G/4A/4G/4 A/4G/4A/4G/4 A/4G/4A/4G/4 A/4G/4A/4G/4 ^C/ EG/ | %22
 F/4G/4A/4G/4 A/4G/4A/4G/4 A/4G/4A/4G/4 A/4G/4A/c/ F/A/c/ | B3/2- B/G/D/ B,/G,/B,/ D/G/A/ | %24
 B/A/G/ F/E/D/ ^C3/2-CE/ | A/G/F/ E/D/^C/ B,3/2-B,A/ | G/F/E/ D/^C/B,/ E/D/C/ B,/A,/G,/ | %27
 ^C/B,/A,/ G,/F,/E,/ A,/G,/F,/ E,/F,/G,/ | F,/A,/D/ F/A/d/ A/F/D/ C/B,/A,/ | %29
 ^G,/B,/D/ =F/B/d/ B/F/E/ D/^C/B,/ | A,/D/F/[K:treble] A/d/f/ e/^c/A/ G/F/E/ | %31
 D/[K:bass]A,/F,/ D,/A,,/F,,/ D,,/F,,/A,,/ D,3/2 | D,/E,/F,/ G,/A,/B,/ C/D,/C/- C/B,/A,/ | %33
 G,/A,/B,/[K:treble] C/D/E/ =F/G,/F/- F/E/D/ | C3/2- C/E/G/ c/B/A/ G/F/E/ | %35
[K:bass] ^D/^C/B,/ A,/G,/F,/ E,/^D,/^C,/ B,,/=C,/A,,/ | G,,3/2- G,,/B,,/E,/ G,/B,/^D/ EG,,/ | %37
 A,,3/2- A,,/C,/=F,/ A,/C/^D/ E^A,,/ | B,,3/2- B,,/^C,/^D,/ E,/F,/G,/ A,/G,/F,/ | %39
 G,/E,/G,/ B,/E/^D/ E/G/E/ B,/G,/B,/ | C,3/2-C,[K:treble]E/ A/G/F/ E/D/C/ | %41
 B,3/2-B,A/ G/F/E/ D/C/B,/ | A,3/2- A,/B,/C/ D/E/F/ G/F/E/ | D3/2- D/E/F/ G/A/B/ c/B/A/ | %44
 G3/2- G/A/B/ c/d/e/ =f/e/d/ | c3/2- c/e/c/ A/E/C/ A,/C/E/ | %46
 A/c/A/ F/D/A,/[K:bass] F,/D,/F,/ A,/C/F,/ | G,/B,/D/[K:treble] G/B/d/ g/d/B<G | %48
 D,/E,/F,/ G,/A,/B,/ C/D,/C/- C/B,/A,/ | G,/A,/B,/ C/D/E/ =F/G,/F/- F/E/D/ | %50
 C3/2- C/E/G/ c/B/A/ G/F/E/ | ^D/^C/B,/ A,/G,/F,/ E,/^D,/^C,/ B,,/=C,/A,,/ | %52
 G,,3/2- G,,/B,,/E,/ G,/B,/^D/ EG,,/ | A,,3/2- A,,/C,/=F,/ A,/C/^D/ E^A,,/ | %54
 B,,3/2- B,,/^C,/^D,/ E,/F,/G,/ A,/G,/F,/ | G,/E,/G,/ B,/E/^D/ E/G/E/ B,/G,/B,/ | %56
 C,3/2-C,E/ A/G/F/ E/D/C/ | B,3/2-B,A/ G/F/E/ D/C/B,/ | A,3/2- A,/B,/C/ D/E/F/ G/F/E/ | %59
 D3/2- D/E/F/ G/A/B/ c/B/A/ | G3/2- G/A/B/ c/d/e/ =f/e/d/ | c3/2- c/e/c/ A/E/C/ A,/C/E/ | %62
 A/c/A/ F/D/A,/ F,/D,/F,/ A,/C/F,/ | G,/B,/D/ G/B/d/ g/d/B<G |] %64

